packages/IcoMoon/src/StrikethroughIcon/index.svg

<svg version="1.1" xmlns="http://www.w3.org/2000/svg" width="16" height="16" viewBox="0 0 16 16">
<path d="M16 8v1h-3.664c0.43 0.602 0.664 1.292 0.664 2 0 1.107-0.573 2.172-1.572 2.921-0.927 0.696-2.145 1.079-3.428 1.079s-2.501-0.383-3.428-1.079c-0.999-0.749-1.572-1.814-1.572-2.921h2c0 1.084 1.374 2 3 2s3-0.916 3-2c0-1.084-1.374-2-3-2h-8v-1h4.68c-0.037-0.026-0.073-0.052-0.108-0.079-0.999-0.749-1.572-1.814-1.572-2.921s0.573-2.172 1.572-2.921c0.927-0.696 2.145-1.079 3.428-1.079s2.501 0.383 3.428 1.079c0.999 0.749 1.572 1.814 1.572 2.921h-2c0-1.084-1.374-2-3-2s-3 0.916-3 2c0 1.084 1.374 2 3 2 1.234 0 2.407 0.354 3.32 1h4.68z"></path>
</svg>

<svg xmlns="http://www.w3.org/2000/svg" viewBox="0 0 16 16">
  <path d="M16 8v1h-3.664c.43.602.664 1.292.664 2 0 1.107-.573 2.172-1.572 2.921C10.501 14.617 9.283 15 8 15s-2.501-.383-3.428-1.079C3.573 13.172 3 12.107 3 11h2c0 1.084 1.374 2 3 2s3-.916 3-2-1.374-2-3-2H0V8h4.68a3.003 3.003 0 01-.108-.079C3.573 7.172 3 6.107 3 5s.573-2.172 1.572-2.921C5.499 1.383 6.717 1 8 1s2.501.383 3.428 1.079C12.427 2.828 13 3.893 13 5h-2c0-1.084-1.374-2-3-2s-3 .916-3 2 1.374 2 3 2c1.234 0 2.407.354 3.32 1H16z"/>
</svg>
